X: 43
M: C|
L: 1/8
K: F
"^>"[F3A,3]G FGAB | cfag fedc |\
"^>"[F3A,3]G FGAB | cfag fedc |\
defg afcB | A2F2 F2 :|
|: AG |\
bagf geca | bagf geca |\
bagf ebge | [f2A2][a2c2] [f2A2] H:|

